X: 1
T: It Was a Lover and His Lass
C: T. Morley
K: C
L: 1/8
M: 4/4
G2 | "G" B3 c "G" d2 d2 | "Am" c2 B2 "Am" A2 AB | "C" c2 cd "C" e2 ef | "G" g6 "G" fe |
M: 2/4
"D" d2 Bc | \
M: 4/4
"D" d6 "D" cB | \
M: 2/2
"C/D" c2 A2 | \
M: 4/4
"G" G6 "G" d2 | "G" d2 d2 "C/G" e2 d2 |
"Am" c2 B2 "Am" A2 A2 | "Am" e4 "A" ^c2 A2 | "D" d4 "G" B2 d2 |: "C" g4 "C" e2 c2 | "Am" e2 d2 "Am" c2 B2 |
"D" d4 "G" B2 G2 | "C" c2 B2 "D" A2 d2 | "G" dc BA "G" G2 g2 | "C" gf ed "C" c2 e2 |
"Am" ed cB "Am" A2 c2 | "G" B3 B "D" A3 A | \
M: 2/4
"G" G2 G2 | \
M: 4/4
"D" d4 "G" B4 :|

